X: 321
T: Thrush In The Bush
C: Josephine Keegan
M: 6/8
L: 1/8
R: jig
K: G
D|:GBG DB,G,|GBd gdB|AEE cEE|AcB AGE|
DB,D GBd|gfg dcB|ABc dcA| AGF G2:|
C|:B,DG Bdf|gfg dcB|AEE cEE|AcB AGE|DB,D GBd|
gfg dcB|[1 ABc dcA| AGF G2:|[2 dbd cac|BAF G2|]
